icons/1_Primary/Discord.svg

<svg xmlns="http://www.w3.org/2000/svg" width="1024" height="1024" fill="none">
   <g clip-path="url(#a)">
      <path fill="#728DBE" d="M512 1024c282.77 0 512-229.23 512-512S794.77 0 512 0 0 229.23 0 512s229.23 512 512 512Z"/>
      <path fill="#fff" d="M689.43 349a422.212 422.212 0 0 0-104.22-32.32 1.581 1.581 0 0 0-1.68.79 294.219 294.219 0 0 0-13 26.66 389.826 389.826 0 0 0-117.05 0c-3.9-9.122-8.3-18.022-13.18-26.66a1.637 1.637 0 0 0-1.68-.79A421.023 421.023 0 0 0 334.44 349c-.286.12-.527.327-.69.59-66.37 99.17-84.55 195.9-75.63 291.41a1.75 1.75 0 0 0 .67 1.2 424.551 424.551 0 0 0 127.85 64.63 1.654 1.654 0 0 0 1.8-.59 303.417 303.417 0 0 0 26.15-42.54c.103-.204.161-.427.171-.656a1.605 1.605 0 0 0-.487-1.233 1.633 1.633 0 0 0-.574-.361 279.546 279.546 0 0 1-39.94-19 1.64 1.64 0 0 1-.16-2.72c2.68-2 5.37-4.1 7.93-6.22a1.584 1.584 0 0 1 1.65-.22c83.79 38.26 174.51 38.26 257.31 0a1.586 1.586 0 0 1 1.68.2c2.56 2.11 5.25 4.23 8 6.24a1.645 1.645 0 0 1 .655 1.398 1.635 1.635 0 0 1-.795 1.322 262.216 262.216 0 0 1-40 19 1.63 1.63 0 0 0-.87 2.28 340.666 340.666 0 0 0 26.13 42.52 1.618 1.618 0 0 0 1.8.61 423.157 423.157 0 0 0 128-64.63 1.65 1.65 0 0 0 .463-.517c.115-.204.186-.43.207-.663 10.68-110.44-17.88-206.38-75.7-291.42a1.303 1.303 0 0 0-.63-.63ZM427.09 582.85c-25.23 0-46-23.16-46-51.6s20.38-51.6 46-51.6c25.83 0 46.42 23.36 46 51.6.02 28.44-20.37 51.6-46 51.6Zm170.13 0c-25.23 0-46-23.16-46-51.6s20.38-51.6 46-51.6c25.83 0 46.42 23.36 46 51.6.01 28.44-20.17 51.6-46 51.6Z"/>
   </g>
   <defs>
      <clipPath id="a">
         <path fill="#fff" d="M0 0h1024v1024H0z"/>
      </clipPath>
   </defs>
</svg>

<svg width="1024" height="1024" viewBox="0 0 1024 1024" fill="none" xmlns="http://www.w3.org/2000/svg">
<g clip-path="url(#clip0_2_2019)">
<path d="M512 1024C794.77 1024 1024 794.77 1024 512C1024 229.23 794.77 0 512 0C229.23 0 0 229.23 0 512C0 794.77 229.23 1024 512 1024Z" fill="#728DBE"/>
<path d="M689.43 349C656.234 333.764 621.202 322.9 585.21 316.68C584.882 316.618 584.543 316.661 584.242 316.803C583.94 316.944 583.691 317.178 583.53 317.47C578.751 326.133 574.412 335.031 570.53 344.13C531.736 338.239 492.274 338.239 453.48 344.13C449.58 335.008 445.18 326.108 440.3 317.47C440.133 317.184 439.882 316.956 439.582 316.815C439.283 316.674 438.947 316.627 438.62 316.68C402.639 322.89 367.618 333.755 334.44 349C334.154 349.12 333.913 349.327 333.75 349.59C267.38 448.76 249.2 545.49 258.12 641C258.145 641.235 258.218 641.462 258.333 641.668C258.448 641.875 258.603 642.055 258.79 642.2C297.438 670.83 340.67 692.684 386.64 706.83C386.964 706.927 387.311 706.923 387.632 706.817C387.954 706.712 388.236 706.51 388.44 706.24C398.31 692.803 407.057 678.575 414.59 663.7C414.693 663.496 414.751 663.273 414.761 663.044C414.772 662.816 414.734 662.588 414.65 662.376C414.565 662.163 414.437 661.971 414.274 661.811C414.11 661.652 413.915 661.529 413.7 661.45C399.906 656.182 386.551 649.828 373.76 642.45C373.528 642.314 373.333 642.122 373.192 641.892C373.052 641.663 372.97 641.402 372.954 641.133C372.938 640.864 372.989 640.596 373.102 640.351C373.214 640.106 373.385 639.893 373.6 639.73C376.28 637.73 378.97 635.63 381.53 633.51C381.757 633.324 382.032 633.204 382.324 633.165C382.615 633.127 382.912 633.17 383.18 633.29C466.97 671.55 557.69 671.55 640.49 633.29C640.76 633.161 641.061 633.111 641.359 633.146C641.656 633.182 641.938 633.301 642.17 633.49C644.73 635.6 647.42 637.72 650.17 639.73C650.385 639.892 650.558 640.103 650.672 640.347C650.786 640.591 650.839 640.859 650.825 641.128C650.811 641.396 650.732 641.658 650.593 641.888C650.454 642.119 650.261 642.312 650.03 642.45C637.256 649.9 623.875 656.256 610.03 661.45C609.814 661.532 609.618 661.658 609.455 661.821C609.291 661.983 609.164 662.179 609.082 662.395C609 662.61 608.964 662.841 608.977 663.071C608.991 663.301 609.053 663.526 609.16 663.73C616.819 678.523 625.552 692.735 635.29 706.25C635.487 706.529 635.768 706.737 636.091 706.847C636.414 706.957 636.764 706.961 637.09 706.86C683.123 692.755 726.411 670.898 765.09 642.23C765.279 642.093 765.437 641.916 765.553 641.713C765.668 641.509 765.739 641.283 765.76 641.05C776.44 530.61 747.88 434.67 690.06 349.63C689.931 349.353 689.708 349.13 689.43 349ZM427.09 582.85C401.86 582.85 381.09 559.69 381.09 531.25C381.09 502.81 401.47 479.65 427.09 479.65C452.92 479.65 473.51 503.01 473.09 531.25C473.11 559.69 452.72 582.85 427.09 582.85ZM597.22 582.85C571.99 582.85 551.22 559.69 551.22 531.25C551.22 502.81 571.6 479.65 597.22 479.65C623.05 479.65 643.64 503.01 643.22 531.25C643.23 559.69 623.05 582.85 597.22 582.85Z" fill="white"/>
</g>
<defs>
<clipPath id="clip0_2_2019">
<rect width="1024" height="1024" fill="white"/>
</clipPath>
</defs>
</svg>
